Newaita-dark/devices/24/network-vpn.svg

<svg height="24pt" viewBox="0 0 24 24" width="24pt" xmlns="http://www.w3.org/2000/svg" xmlns:xlink="http://www.w3.org/1999/xlink"><linearGradient id="a"><stop offset="0" stop-opacity=".313725"/><stop offset=".222222" stop-opacity=".27451"/><stop offset="1" stop-opacity="0"/></linearGradient><radialGradient id="b" cx="450.90894" cy="189.57936" gradientTransform="matrix(.00000013 -.0512744 -.105479 -.00000007 32.15201 44.486633)" gradientUnits="userSpaceOnUse" r="21.166656" xlink:href="#a"/><radialGradient id="c" cx="450.90894" cy="189.57936" gradientTransform="matrix(-.00000013 .0512744 .105479 .00000007 -8.337235 -2.187673)" gradientUnits="userSpaceOnUse" r="21.166656" xlink:href="#a"/><radialGradient id="d" cx="450.90894" cy="189.57936" gradientTransform="matrix(-.00000013 -.0512744 .105479 -.00000007 -8.337235 44.486633)" gradientUnits="userSpaceOnUse" r="21.166656" xlink:href="#a"/><radialGradient id="e" cx="450.90894" cy="189.57936" gradientTransform="matrix(.00000013 .0512744 -.105479 .00000007 32.152009 -2.187673)" gradientUnits="userSpaceOnUse" r="21.166656" xlink:href="#a"/><linearGradient id="f" gradientTransform="matrix(.01002 0 0 .0410195 9.349038 11.571427)" gradientUnits="userSpaceOnUse" x1="255.32306" x2="255.32304" y1="233.5" y2="254.66666"><stop offset="0" stop-opacity=".27451"/><stop offset="1" stop-opacity="0"/></linearGradient><linearGradient id="g" gradientUnits="userSpaceOnUse" x1="11.907393" x2="11.907393" y1="21.02545025" y2="2.17207784373"><stop offset="0" stop-color="#26c6da"/><stop offset="1" stop-color="#4dd0e1"/></linearGradient><linearGradient id="h" gradientUnits="userSpaceOnUse" x1="11.907393" x2="11.907393" y1="21.02545025" y2="2.17207784373"><stop offset="0" stop-color="#bdbdbd"/><stop offset="1" stop-color="#e0e0e0"/></linearGradient><linearGradient id="i" gradientUnits="userSpaceOnUse" x1="11.90736" x2="11.90736" xlink:href="#a" y1="2.17207760142" y2="21.0253985937"/><path d="m12.402344 21.148438h1.984375v-.867188h-1.984375zm0 0" fill="url(#b)"/><path d="m11.410156 21.148438h-1.984375v.871093h1.984375zm0 0" fill="url(#c)"/><path d="m11.410156 21.148438h-1.984375v-.867188h1.984375zm0 0" fill="url(#d)"/><path d="m12.402344 21.148438h1.984375v.871093h-1.984375zm0 0" fill="url(#e)"/><path d="m11.410156 20.933594h.992188v1.085937h-.992188zm0 0" fill="url(#f)"/><path d="m11.90625 2.171875c6.449219 0 8.933594 1.488281 8.933594 2.976563 0 7.441406-5.460938 15.878906-8.933594 15.878906s-8.929688-8.4375-8.929688-15.878906c0-1.488282 2.976563-2.976563 8.929688-2.976563zm0 0" fill="url(#g)"/><path d="m11.90625 2.171875c-5.953125 0-8.929688 1.488281-8.929688 2.976563 0 7.441406 5.457032 15.878906 8.929688 15.878906s8.933594-8.4375 8.933594-15.878906c0-1.488282-2.484375-2.976563-8.933594-2.976563zm0 .992187c5.777344 0 7.996094 1.332032 7.996094 2.664063 0 6.664063-4.886719 14.21875-7.996094 14.21875s-7.996094-7.554687-7.996094-14.21875c0-1.332031 2.667969-2.664063 7.996094-2.664063zm0 0" fill="url(#h)"/><path d="m20.835938 5.035156c-.15625 7.359375-5.507813 15.550782-8.929688 15.550782-3.417969 0-8.765625-8.183594-8.925781-15.542969-.003907.03125-.003907.058593-.003907.089843 0 7.441407 5.457032 15.875 8.929688 15.875s8.933594-8.433593 8.933594-15.875c0-.03125-.003906-.066406-.003906-.097656zm0 0" fill-opacity=".235294"/><path d="m11.90625 2.171875c-5.953125 0-8.929688 1.488281-8.929688 2.976563v.195312c.070313-1.46875 3.046876-2.921875 8.929688-2.921875 6.371094 0 8.867188 1.449219 8.929688 2.917969 0-.0625.003906-.128906.003906-.191406 0-1.488282-2.484375-2.976563-8.933594-2.976563zm0 0" fill="#fff" fill-opacity=".392157"/><path d="m11.90625 2.101562c-2.980469 0-5.222656.371094-6.722656.933594-.75.28125-1.316406.613282-1.695313.96875-.382812.359375-.582031.75-.582031 1.144532 0 3.738281 1.367188 7.714843 3.171875 10.765624.902344 1.523438 1.914063 2.816407 2.921875 3.730469 1.007812.914063 2.011719 1.453125 2.90625 1.453125.898438 0 1.902344-.539062 2.910156-1.453125 1.007813-.914062 2.015625-2.207031 2.917969-3.730469 1.804687-3.050781 3.175781-7.027343 3.175781-10.765624 0-.390626-.167968-.78125-.511718-1.140626-.339844-.359374-.863282-.6875-1.582032-.972656-1.4375-.5625-3.679687-.933594-6.910156-.933594zm0 .140626c3.21875 0 5.445312.371093 6.859375.925781.707031.277343 1.210937.597656 1.53125.9375.324219.335937.472656.691406.472656 1.042969 0 3.703124-1.363281 7.664062-3.15625 10.695312-.894531 1.511719-1.898437 2.792969-2.890625 3.695312-.996094.902344-1.976562 1.417969-2.816406 1.417969s-1.820312-.515625-2.8125-1.417969c-.992188-.902343-1.996094-2.183593-2.894531-3.695312-1.792969-3.03125-3.152344-6.992188-3.152344-10.695312 0-.347657.171875-.703126.535156-1.042969.363281-.339844.914063-.660157 1.652344-.9375 1.476563-.554688 3.703125-.925781 6.671875-.925781zm0 .851562c-2.671875 0-4.675781.332031-6.019531.835938-.675781.253906-1.179688.546874-1.523438.871093-.34375.320313-.523437.671875-.523437 1.027344 0 3.351563 1.226562 6.914063 2.84375 9.644531.808594 1.367188 1.710937 2.523438 2.613281 3.339844.90625.820312 1.804687 1.304688 2.609375 1.304688.808594 0 1.707031-.484376 2.609375-1.304688.902344-.816406 1.808594-1.972656 2.617187-3.339844 1.617188-2.730468 2.839844-6.292968 2.839844-9.644531 0-.351563-.148437-.703125-.453125-1.027344-.308593-.320312-.777343-.617187-1.421875-.867187-1.292968-.507813-3.296875-.839844-6.191406-.839844zm0 .140625c2.882812 0 4.875.332031 6.140625.828125.632813.246094 1.082031.535156 1.367187.835938.289063.304687.417969.617187.417969.929687 0 3.316406-1.214843 6.863281-2.820312 9.574219-.800781 1.355468-1.703125 2.5-2.589844 3.308594-.886719.804687-1.765625 1.265624-2.515625 1.265624-.746094 0-1.625-.460937-2.511719-1.265624-.890625-.808594-1.789062-1.953126-2.589843-3.308594-1.605469-2.710938-2.824219-6.257813-2.824219-9.574219 0-.308594.15625-.621094.476562-.925781.324219-.304688.816407-.589844 1.476563-.839844 1.320312-.496094 3.3125-.828125 5.972656-.828125zm0 0" fill="#212121"/><path d="m11.90625 5.644531c-1.648438 0-2.976562 1.328125-2.976562 2.976563 0 1.300781.828124 2.402344 1.984374 2.808594v3.640624c0 .550782.421876.992188.945313.992188h.09375c.523437 0 .945313-.441406.945313-.992188v-3.640624c1.160156-.40625 1.984374-1.507813 1.984374-2.808594 0-1.648438-1.328124-2.976563-2.976562-2.976563zm0 0" fill="url(#i)"/><path d="m11.90625 5.644531c-1.648438 0-2.976562 1.328125-2.976562 2.976563 0 .085937.003906.167968.011718.25.125-1.53125 1.398438-2.730469 2.964844-2.730469s2.84375 1.199219 2.96875 2.730469c.003906-.082032.007812-.164063.007812-.25 0-1.648438-1.328124-2.976563-2.976562-2.976563zm0 0" fill-opacity=".235294"/><path d="m8.941406 8.789062c-.007812.082032-.011718.164063-.011718.25 0 1.300782.828124 2.402344 1.984374 2.808594v-.496094c-1.082031-.382812-1.875-1.371093-1.972656-2.5625zm5.933594 0c-.097656 1.191407-.890625 2.179688-1.976562 2.5625v.496094c1.160156-.40625 1.984374-1.507812 1.984374-2.808594 0-.085937-.003906-.167968-.007812-.25zm-3.960938 6.203126v.496093c0 .550781.421876.992188.945313.992188h.09375c.523437 0 .945313-.441407.945313-.992188v-.496093c0 .550781-.421876.992187-.945313.992187h-.09375c-.523437 0-.945313-.441406-.945313-.992187zm0 0" fill="#fff" fill-opacity=".392157"/><path d="m959.908345 455.074659c-132.900696 0-239.977086 107.07639-239.977086 239.977086 0 104.871876 66.765279 193.682294 159.984724 226.435072v293.515282c0 44.405209 34.012501 79.992362 76.213196 79.992362h7.558333c42.200695 0 76.213196-35.587153 76.213196-79.992362v-293.515282c93.534376-32.752778 159.984724-121.563196 159.984724-226.435072 0-132.900696-107.07639-239.977086-239.977087-239.977086zm0 0" fill="none" stroke="#212121" stroke-linecap="round" stroke-linejoin="round" stroke-width="11.338583" transform="scale(.0124035)"/></svg>

<?xml version="1.0" encoding="UTF-8"?>
<svg xmlns="http://www.w3.org/2000/svg" xmlns:xlink="http://www.w3.org/1999/xlink" width="24pt" height="24pt" viewBox="0 0 24 24" version="1.1">
<defs>
<radialGradient id="radial0" gradientUnits="userSpaceOnUse" cx="450.90894" cy="189.57936" fx="450.90894" fy="189.57936" r="21.166656" gradientTransform="matrix(0.000000130628,-0.0512744,-0.105479,-0.0000000666346,32.15201,44.486633)">
<stop offset="0" style="stop-color:rgb(0%,0%,0%);stop-opacity:0.313725;"/>
<stop offset="0.222222" style="stop-color:rgb(0%,0%,0%);stop-opacity:0.27451;"/>
<stop offset="1" style="stop-color:rgb(0%,0%,0%);stop-opacity:0;"/>
</radialGradient>
<radialGradient id="radial1" gradientUnits="userSpaceOnUse" cx="450.90894" cy="189.57936" fx="450.90894" fy="189.57936" r="21.166656" gradientTransform="matrix(-0.000000130628,0.0512744,0.105479,0.0000000666346,-8.337235,-2.187673)">
<stop offset="0" style="stop-color:rgb(0%,0%,0%);stop-opacity:0.313725;"/>
<stop offset="0.222222" style="stop-color:rgb(0%,0%,0%);stop-opacity:0.27451;"/>
<stop offset="1" style="stop-color:rgb(0%,0%,0%);stop-opacity:0;"/>
</radialGradient>
<radialGradient id="radial2" gradientUnits="userSpaceOnUse" cx="450.90894" cy="189.57936" fx="450.90894" fy="189.57936" r="21.166656" gradientTransform="matrix(-0.000000130628,-0.0512744,0.105479,-0.0000000666346,-8.337235,44.486633)">
<stop offset="0" style="stop-color:rgb(0%,0%,0%);stop-opacity:0.313725;"/>
<stop offset="0.222222" style="stop-color:rgb(0%,0%,0%);stop-opacity:0.27451;"/>
<stop offset="1" style="stop-color:rgb(0%,0%,0%);stop-opacity:0;"/>
</radialGradient>
<radialGradient id="radial3" gradientUnits="userSpaceOnUse" cx="450.90894" cy="189.57936" fx="450.90894" fy="189.57936" r="21.166656" gradientTransform="matrix(0.000000130628,0.0512744,-0.105479,0.0000000666346,32.152009,-2.187673)">
<stop offset="0" style="stop-color:rgb(0%,0%,0%);stop-opacity:0.313725;"/>
<stop offset="0.222222" style="stop-color:rgb(0%,0%,0%);stop-opacity:0.27451;"/>
<stop offset="1" style="stop-color:rgb(0%,0%,0%);stop-opacity:0;"/>
</radialGradient>
<linearGradient id="linear0" gradientUnits="userSpaceOnUse" x1="255.32306" y1="233.5" x2="255.32304" y2="254.66666" gradientTransform="matrix(0.01002,0,0,0.0410195,9.349038,11.571427)">
<stop offset="0" style="stop-color:rgb(0%,0%,0%);stop-opacity:0.27451;"/>
<stop offset="1" style="stop-color:rgb(0%,0%,0%);stop-opacity:0;"/>
</linearGradient>
<linearGradient id="linear1" gradientUnits="userSpaceOnUse" x1="254" y1="233.5" x2="254" y2="-168.66667" gradientTransform="matrix(0.0468795,0,0,0.0468795,0,10.079087)">
<stop offset="0" style="stop-color:rgb(14.901961%,77.647059%,85.490196%);stop-opacity:1;"/>
<stop offset="1" style="stop-color:rgb(30.196078%,81.568627%,88.235294%);stop-opacity:1;"/>
</linearGradient>
<linearGradient id="linear2" gradientUnits="userSpaceOnUse" x1="254" y1="233.5" x2="254" y2="-168.66667" gradientTransform="matrix(0.0468795,0,0,0.0468795,0,10.079087)">
<stop offset="0" style="stop-color:rgb(74.117647%,74.117647%,74.117647%);stop-opacity:1;"/>
<stop offset="1" style="stop-color:rgb(87.843137%,87.843137%,87.843137%);stop-opacity:1;"/>
</linearGradient>
<linearGradient id="linear3" gradientUnits="userSpaceOnUse" x1="960" y1="175.11812" x2="960" y2="1695.1182" gradientTransform="matrix(0.0124035,0,0,0.0124035,0,0)">
<stop offset="0" style="stop-color:rgb(0%,0%,0%);stop-opacity:0.313725;"/>
<stop offset="0.222222" style="stop-color:rgb(0%,0%,0%);stop-opacity:0.27451;"/>
<stop offset="1" style="stop-color:rgb(0%,0%,0%);stop-opacity:0;"/>
</linearGradient>
</defs>
<g id="surface1">
<path style=" stroke:none;fill-rule:nonzero;fill:url(#radial0);" d="M 12.402344 21.148438 L 14.386719 21.148438 L 14.386719 20.28125 L 12.402344 20.28125 Z M 12.402344 21.148438 "/>
<path style=" stroke:none;fill-rule:nonzero;fill:url(#radial1);" d="M 11.410156 21.148438 L 9.425781 21.148438 L 9.425781 22.019531 L 11.410156 22.019531 Z M 11.410156 21.148438 "/>
<path style=" stroke:none;fill-rule:nonzero;fill:url(#radial2);" d="M 11.410156 21.148438 L 9.425781 21.148438 L 9.425781 20.28125 L 11.410156 20.28125 Z M 11.410156 21.148438 "/>
<path style=" stroke:none;fill-rule:nonzero;fill:url(#radial3);" d="M 12.402344 21.148438 L 14.386719 21.148438 L 14.386719 22.019531 L 12.402344 22.019531 Z M 12.402344 21.148438 "/>
<path style=" stroke:none;fill-rule:nonzero;fill:url(#linear0);" d="M 11.410156 20.933594 L 12.402344 20.933594 L 12.402344 22.019531 L 11.410156 22.019531 Z M 11.410156 20.933594 "/>
<path style=" stroke:none;fill-rule:nonzero;fill:url(#linear1);" d="M 11.90625 2.171875 C 18.355469 2.171875 20.839844 3.660156 20.839844 5.148438 C 20.839844 12.589844 15.378906 21.027344 11.90625 21.027344 C 8.433594 21.027344 2.976562 12.589844 2.976562 5.148438 C 2.976562 3.660156 5.953125 2.171875 11.90625 2.171875 Z M 11.90625 2.171875 "/>
<path style=" stroke:none;fill-rule:nonzero;fill:url(#linear2);" d="M 11.90625 2.171875 C 5.953125 2.171875 2.976562 3.660156 2.976562 5.148438 C 2.976562 12.589844 8.433594 21.027344 11.90625 21.027344 C 15.378906 21.027344 20.839844 12.589844 20.839844 5.148438 C 20.839844 3.660156 18.355469 2.171875 11.90625 2.171875 Z M 11.90625 3.164062 C 17.683594 3.164062 19.902344 4.496094 19.902344 5.828125 C 19.902344 12.492188 15.015625 20.046875 11.90625 20.046875 C 8.796875 20.046875 3.910156 12.492188 3.910156 5.828125 C 3.910156 4.496094 6.578125 3.164062 11.90625 3.164062 Z M 11.90625 3.164062 "/>
<path style=" stroke:none;fill-rule:nonzero;fill:rgb(0%,0%,0%);fill-opacity:0.235294;" d="M 20.835938 5.035156 C 20.679688 12.394531 15.328125 20.585938 11.90625 20.585938 C 8.488281 20.585938 3.140625 12.402344 2.980469 5.042969 C 2.976562 5.074219 2.976562 5.101562 2.976562 5.132812 C 2.976562 12.574219 8.433594 21.007812 11.90625 21.007812 C 15.378906 21.007812 20.839844 12.574219 20.839844 5.132812 C 20.839844 5.101562 20.835938 5.066406 20.835938 5.035156 Z M 20.835938 5.035156 "/>
<path style=" stroke:none;fill-rule:nonzero;fill:rgb(100%,100%,100%);fill-opacity:0.392157;" d="M 11.90625 2.171875 C 5.953125 2.171875 2.976562 3.660156 2.976562 5.148438 C 2.976562 5.214844 2.976562 5.28125 2.976562 5.34375 C 3.046875 3.875 6.023438 2.421875 11.90625 2.421875 C 18.277344 2.421875 20.773438 3.871094 20.835938 5.339844 C 20.835938 5.277344 20.839844 5.210938 20.839844 5.148438 C 20.839844 3.660156 18.355469 2.171875 11.90625 2.171875 Z M 11.90625 2.171875 "/>
<path style=" stroke:none;fill-rule:nonzero;fill:rgb(12.941176%,12.941176%,12.941176%);fill-opacity:1;" d="M 11.90625 2.101562 C 8.925781 2.101562 6.683594 2.472656 5.183594 3.035156 C 4.433594 3.316406 3.867188 3.648438 3.488281 4.003906 C 3.105469 4.363281 2.90625 4.753906 2.90625 5.148438 C 2.90625 8.886719 4.273438 12.863281 6.078125 15.914062 C 6.980469 17.4375 7.992188 18.730469 9 19.644531 C 10.007812 20.558594 11.011719 21.097656 11.90625 21.097656 C 12.804688 21.097656 13.808594 20.558594 14.816406 19.644531 C 15.824219 18.730469 16.832031 17.4375 17.734375 15.914062 C 19.539062 12.863281 20.910156 8.886719 20.910156 5.148438 C 20.910156 4.757812 20.742188 4.367188 20.398438 4.007812 C 20.058594 3.648438 19.535156 3.320312 18.816406 3.035156 C 17.378906 2.472656 15.136719 2.101562 11.90625 2.101562 Z M 11.90625 2.242188 C 15.125 2.242188 17.351562 2.613281 18.765625 3.167969 C 19.472656 3.445312 19.976562 3.765625 20.296875 4.105469 C 20.621094 4.441406 20.769531 4.796875 20.769531 5.148438 C 20.769531 8.851562 19.40625 12.8125 17.613281 15.84375 C 16.71875 17.355469 15.714844 18.636719 14.722656 19.539062 C 13.726562 20.441406 12.746094 20.957031 11.90625 20.957031 C 11.066406 20.957031 10.085938 20.441406 9.09375 19.539062 C 8.101562 18.636719 7.097656 17.355469 6.199219 15.84375 C 4.40625 12.8125 3.046875 8.851562 3.046875 5.148438 C 3.046875 4.800781 3.21875 4.445312 3.582031 4.105469 C 3.945312 3.765625 4.496094 3.445312 5.234375 3.167969 C 6.710938 2.613281 8.9375 2.242188 11.90625 2.242188 Z M 11.90625 3.09375 C 9.234375 3.09375 7.230469 3.425781 5.886719 3.929688 C 5.210938 4.183594 4.707031 4.476562 4.363281 4.800781 C 4.019531 5.121094 3.839844 5.472656 3.839844 5.828125 C 3.839844 9.179688 5.066406 12.742188 6.683594 15.472656 C 7.492188 16.839844 8.394531 17.996094 9.296875 18.8125 C 10.203125 19.632812 11.101562 20.117188 11.90625 20.117188 C 12.714844 20.117188 13.613281 19.632812 14.515625 18.8125 C 15.417969 17.996094 16.324219 16.839844 17.132812 15.472656 C 18.75 12.742188 19.972656 9.179688 19.972656 5.828125 C 19.972656 5.476562 19.824219 5.125 19.519531 4.800781 C 19.210938 4.480469 18.742188 4.183594 18.097656 3.933594 C 16.804688 3.425781 14.800781 3.09375 11.90625 3.09375 Z M 11.90625 3.234375 C 14.789062 3.234375 16.78125 3.566406 18.046875 4.0625 C 18.679688 4.308594 19.128906 4.597656 19.414062 4.898438 C 19.703125 5.203125 19.832031 5.515625 19.832031 5.828125 C 19.832031 9.144531 18.617188 12.691406 17.011719 15.402344 C 16.210938 16.757812 15.308594 17.902344 14.421875 18.710938 C 13.535156 19.515625 12.65625 19.976562 11.90625 19.976562 C 11.160156 19.976562 10.28125 19.515625 9.394531 18.710938 C 8.503906 17.902344 7.605469 16.757812 6.804688 15.402344 C 5.199219 12.691406 3.980469 9.144531 3.980469 5.828125 C 3.980469 5.519531 4.136719 5.207031 4.457031 4.902344 C 4.78125 4.597656 5.273438 4.3125 5.933594 4.0625 C 7.253906 3.566406 9.246094 3.234375 11.90625 3.234375 Z M 11.90625 3.234375 "/>
<path style=" stroke:none;fill-rule:nonzero;fill:url(#linear3);" d="M 11.90625 5.644531 C 10.257812 5.644531 8.929688 6.972656 8.929688 8.621094 C 8.929688 9.921875 9.757812 11.023438 10.914062 11.429688 L 10.914062 15.070312 C 10.914062 15.621094 11.335938 16.0625 11.859375 16.0625 L 11.953125 16.0625 C 12.476562 16.0625 12.898438 15.621094 12.898438 15.070312 L 12.898438 11.429688 C 14.058594 11.023438 14.882812 9.921875 14.882812 8.621094 C 14.882812 6.972656 13.554688 5.644531 11.90625 5.644531 Z M 11.90625 5.644531 "/>
<path style=" stroke:none;fill-rule:nonzero;fill:rgb(0%,0%,0%);fill-opacity:0.235294;" d="M 11.90625 5.644531 C 10.257812 5.644531 8.929688 6.972656 8.929688 8.621094 C 8.929688 8.707031 8.933594 8.789062 8.941406 8.871094 C 9.066406 7.339844 10.339844 6.140625 11.90625 6.140625 C 13.472656 6.140625 14.75 7.339844 14.875 8.871094 C 14.878906 8.789062 14.882812 8.707031 14.882812 8.621094 C 14.882812 6.972656 13.554688 5.644531 11.90625 5.644531 Z M 11.90625 5.644531 "/>
<path style=" stroke:none;fill-rule:nonzero;fill:rgb(100%,100%,100%);fill-opacity:0.392157;" d="M 8.941406 8.789062 C 8.933594 8.871094 8.929688 8.953125 8.929688 9.039062 C 8.929688 10.339844 9.757812 11.441406 10.914062 11.847656 L 10.914062 11.351562 C 9.832031 10.96875 9.039062 9.980469 8.941406 8.789062 Z M 14.875 8.789062 C 14.777344 9.980469 13.984375 10.96875 12.898438 11.351562 L 12.898438 11.847656 C 14.058594 11.441406 14.882812 10.339844 14.882812 9.039062 C 14.882812 8.953125 14.878906 8.871094 14.875 8.789062 Z M 10.914062 14.992188 L 10.914062 15.488281 C 10.914062 16.039062 11.335938 16.480469 11.859375 16.480469 L 11.953125 16.480469 C 12.476562 16.480469 12.898438 16.039062 12.898438 15.488281 L 12.898438 14.992188 C 12.898438 15.542969 12.476562 15.984375 11.953125 15.984375 L 11.859375 15.984375 C 11.335938 15.984375 10.914062 15.542969 10.914062 14.992188 Z M 10.914062 14.992188 "/>
<path style="fill:none;stroke-width:11.338583;stroke-linecap:round;stroke-linejoin:round;stroke:rgb(12.941176%,12.941176%,12.941176%);stroke-opacity:1;stroke-miterlimit:4;" d="M 959.908345 455.074659 C 827.007649 455.074659 719.931259 562.151049 719.931259 695.051745 C 719.931259 799.923621 786.696538 888.734039 879.915983 921.486817 L 879.915983 1215.002099 C 879.915983 1259.407308 913.928484 1294.994461 956.129179 1294.994461 L 963.687512 1294.994461 C 1005.888207 1294.994461 1039.900708 1259.407308 1039.900708 1215.002099 L 1039.900708 921.486817 C 1133.435084 888.734039 1199.885432 799.923621 1199.885432 695.051745 C 1199.885432 562.151049 1092.809042 455.074659 959.908345 455.074659 Z M 959.908345 455.074659 " transform="matrix(0.0124035,0,0,0.0124035,0,0)"/>
</g>
</svg>
